X:1
T:Iosco, LM
T:Iosco, LM
T:From Old German Chorale
T:Public Domain Courtesy of the Cyber Hymnal™
C:From Old German Chorale
Z:Public Domain
Z:Courtesy of the Cyber Hymnal™
%%score 1 2
L:1/8
Q:1/4=115
M:4/4
K:F
V:1 treble 
V:2 bass 
V:1
 [CF]4 [FA]2 [Gc]2 | [FA]2 [EG]2 [FA]2 [F=B]2 | [Ec]8 | [Fc]4 [Fd]2 [Ec]2 | %4
 [FA]2 [CF]2 [DF]2 [CE]2 | [CF]8 | [EG]4 [FA]2 [FA]2 | [DG]2 [Gc]2 [Fc]2 [F=B]2 | [Ec]8 | %9
 [FA]4 [FB]2 [FA]2 | [EG]2 [DF]2 [DF]2 [CE]2 | [CF]8 |] %12
V:2
 [F,A,]4 [F,C]2 [E,C]2 | [F,C]2 [C,C]2 [F,C]2 [D,F,]2 | [C,G,]8 | [F,A,]4 [B,,B,]2 [C,G,]2 | %4
 [F,A,]2 [A,,C]2 [B,,B,]2 [C,G,]2 | [F,A,]8 | [C,C]4 [F,C]2 [D,D]2 | %7
 [G,=B,]2 [E,C]2 [D,D]2 [G,D]2 | [C,C]8 | [F,C]4 [D,D]2 [F,C]2 | [C,C]2 [D,A,]2 [B,,G,]2 [C,G,]2 | %11
 [F,A,]8 |] %12

